X:166
T:La Noirceur
C:Jocelyne Patenaude
Z:robin.beech@mcgill.ca
R:jig
M:6/8
L:1/8
K:Em
EGB eBG | cAF B2G | B,EG BGE | FGF F2G |
EGB eBG | cAF BGE | CEG B,EG AFG E2F ::
GBd dBG | cAF B2G | B,EG BGE | FGF F2G |
GBd dBG | cAF BGE | CEG B,EG | AFG E3 :|
